_includes/icons/join/community.svg

<svg id="Layer_1" data-name="Layer 1" xmlns="http://www.w3.org/2000/svg" viewBox="0 0 65 46"><defs><style>.cls-1{fill:#609c70;}.cls-2{fill:none;stroke:#54565a;}</style></defs><path class="cls-1" d="M11.4149,20.87509a6.25006,6.25006,0,1,0-6.2766-6.25A6.26915,6.26915,0,0,0,11.4149,20.87509Zm43.9362,0a6.25006,6.25006,0,1,0-6.2766-6.25A6.26915,6.26915,0,0,0,55.3511,20.87509Zm3.1383,3.125H52.2128a6.272,6.272,0,0,0-4.4231,1.8164,14.2847,14.2847,0,0,1,7.3652,10.6836h6.4728a3.12836,3.12836,0,0,0,3.1383-3.125v-3.125A6.26915,6.26915,0,0,0,58.4894,24.00009Zm-25.1064,0a10.9376,10.9376,0,1,0-10.9841-10.9375A10.95533,10.95533,0,0,0,33.383,24.00009Zm7.5319,3.125h-.814a15.22291,15.22291,0,0,1-13.4358,0h-.814a11.277,11.277,0,0,0-11.2979,11.25v2.8125a4.69867,4.69867,0,0,0,4.7074,4.6875H47.5053a4.69876,4.69876,0,0,0,4.7075-4.6875v-2.8125A11.277,11.277,0,0,0,40.9149,27.12509Zm-21.9387-1.3086a6.27162,6.27162,0,0,0-4.423-1.8164H8.2766A6.26912,6.26912,0,0,0,2,30.25009v3.125a3.12832,3.12832,0,0,0,3.1383,3.125h6.4629A14.321,14.321,0,0,1,18.9762,25.81649Z"/><path class="cls-2" d="M15.1915,12.62509a5.77666,5.77666,0,1,1-5.77661-5.75A5.76916,5.76916,0,0,1,15.1915,12.62509Zm43.9362,0a5.77666,5.77666,0,1,1-5.7766-5.75A5.76916,5.76916,0,0,1,59.1277,12.62509Zm-5.5407,21.375a14.77278,14.77278,0,0,0-6.9449-10.269,5.76289,5.76289,0,0,1,3.5707-1.231h6.2766a5.76916,5.76916,0,0,1,5.7766,5.75v3.125a2.62832,2.62832,0,0,1-2.6383,2.625Zm-11.72-22.9375A10.48415,10.48415,0,1,1,31.383.62509,10.45528,10.45528,0,0,1,41.867,11.06259Zm-10.484,16.125a15.982,15.982,0,0,0,6.8305-1.5625h.7014a10.777,10.777,0,0,1,10.7979,10.75v2.8125a4.19877,4.19877,0,0,1-4.2075,4.1875H17.2606a4.19875,4.19875,0,0,1-4.2074-4.1875v-2.8125a10.7769,10.7769,0,0,1,10.7979-10.75h.7018A16.01167,16.01167,0,0,0,31.383,27.18759Zm-18.8298-4.6875a5.7631,5.7631,0,0,1,3.5707,1.231A14.80953,14.80953,0,0,0,9.17,34.00009H3.1383A2.6283,2.6283,0,0,1,.5,31.37509v-3.125a5.76916,5.76916,0,0,1,5.7766-5.75Z"/></svg>

<svg width="65" height="46" viewBox="0 0 65 46" fill="none" xmlns="http://www.w3.org/2000/svg">
<path d="M11.4149 20.875C14.8768 20.875 17.6915 18.0723 17.6915 14.625C17.6915 11.1777 14.8768 8.375 11.4149 8.375C7.95296 8.375 5.1383 11.1777 5.1383 14.625C5.1383 18.0723 7.95296 20.875 11.4149 20.875ZM55.3511 20.875C58.813 20.875 61.6277 18.0723 61.6277 14.625C61.6277 11.1777 58.813 8.375 55.3511 8.375C51.8891 8.375 49.0745 11.1777 49.0745 14.625C49.0745 18.0723 51.8891 20.875 55.3511 20.875ZM58.4894 24H52.2128C50.4867 24 48.9274 24.6934 47.7897 25.8164C51.742 27.9746 54.5469 31.8711 55.1549 36.5H61.6277C63.3635 36.5 64.766 35.1035 64.766 33.375V30.25C64.766 26.8027 61.9513 24 58.4894 24ZM33.383 24C39.4536 24 44.367 19.1074 44.367 13.0625C44.367 7.01758 39.4536 2.125 33.383 2.125C27.3123 2.125 22.3989 7.01758 22.3989 13.0625C22.3989 19.1074 27.3123 24 33.383 24ZM40.9149 27.125H40.1009C38.061 28.1016 35.7955 28.6875 33.383 28.6875C30.9704 28.6875 28.7148 28.1016 26.6651 27.125H25.8511C19.6137 27.125 14.5532 32.1641 14.5532 38.375V41.1875C14.5532 43.7754 16.6617 45.875 19.2606 45.875H47.5053C50.1042 45.875 52.2128 43.7754 52.2128 41.1875V38.375C52.2128 32.1641 47.1523 27.125 40.9149 27.125ZM18.9762 25.8164C17.8386 24.6934 16.2793 24 14.5532 24H8.2766C4.81466 24 2 26.8027 2 30.25V33.375C2 35.1035 3.40243 36.5 5.1383 36.5H11.6012C12.2191 31.8711 15.0239 27.9746 18.9762 25.8164Z" fill="#80b690"/>
<path d="M15.1915 12.625C15.1915 15.7941 12.6027 18.375 9.41489 18.375C6.2271 18.375 3.6383 15.7941 3.6383 12.625C3.6383 9.45588 6.2271 6.875 9.41489 6.875C12.6027 6.875 15.1915 9.45588 15.1915 12.625ZM59.1277 12.625C59.1277 15.7941 56.5389 18.375 53.3511 18.375C50.1633 18.375 47.5745 15.7941 47.5745 12.625C47.5745 9.45588 50.1633 6.875 53.3511 6.875C56.5389 6.875 59.1277 9.45588 59.1277 12.625ZM53.587 34C52.8823 29.6389 50.2847 25.9471 46.6421 23.731C47.6264 22.9594 48.864 22.5 50.2128 22.5H56.4894C59.6772 22.5 62.266 25.0809 62.266 28.25V31.375C62.266 32.8254 61.0894 34 59.6277 34H53.587ZM41.867 11.0625C41.867 16.8293 37.1795 21.5 31.383 21.5C25.5865 21.5 20.8989 16.8293 20.8989 11.0625C20.8989 5.29572 25.5865 0.625 31.383 0.625C37.1795 0.625 41.867 5.29572 41.867 11.0625ZM31.383 27.1875C33.8371 27.1875 36.1402 26.601 38.2135 25.625H38.9149C44.8781 25.625 49.7128 30.4422 49.7128 36.375V39.1875C49.7128 41.4972 47.8301 43.375 45.5053 43.375H17.2606C14.9359 43.375 13.0532 41.4972 13.0532 39.1875V36.375C13.0532 30.4422 17.8878 25.625 23.8511 25.625H24.5529C26.6345 26.6006 28.9281 27.1875 31.383 27.1875ZM12.5532 22.5C13.902 22.5 15.1395 22.9594 16.1239 23.731C12.4809 25.9473 9.88316 29.6392 9.17003 34H3.1383C1.67657 34 0.5 32.8254 0.5 31.375V28.25C0.5 25.0809 3.0888 22.5 6.2766 22.5H12.5532Z" stroke="#1c1d20"/>
</svg>
